Obsidian-SemiLight/actions/22s/xml-element-new.svg

<svg viewBox="0 0 22 22" xmlns="http://www.w3.org/2000/svg"><path d="m12.5 3-4 15.753906 1 .246094 4-15.7539062zm-5.2460938 3-3.9746093 4.644531-.2792969.355469.2792969.355469 3.9746093 4.644531.7460938-.708984-3.6640625-4.291016 3.6640625-4.2910156zm7.4921878 0-.746094.7089844 3.664062 4.2910156-1.707031 2h1.355469l1.408203-1.644531.279297-.355469-.279297-.355469zm1.253906 8v2h-2v1h2v2h1v-2h2v-1h-2v-2z" fill="#4d4d4d"/></svg>

<svg xmlns="http://www.w3.org/2000/svg" viewBox="0 0 22 22">
  <defs id="defs3051">
    <style type="text/css" id="current-color-scheme">
      .ColorScheme-Text {
        color:#4d4d4d;
      }
      </style>
  </defs>
 <path 
    style="fill:currentColor;fill-opacity:1;stroke:none" 
    d="M 12.5 3 L 8.5 18.753906 L 9.5 19 L 13.5 3.2460938 L 12.5 3 z M 7.2539062 6 L 3.2792969 10.644531 L 3 11 L 3.2792969 11.355469 L 7.2539062 16 L 8 15.291016 L 4.3359375 11 L 8 6.7089844 L 7.2539062 6 z M 14.746094 6 L 14 6.7089844 L 17.664062 11 L 15.957031 13 L 17.3125 13 L 18.720703 11.355469 L 19 11 L 18.720703 10.644531 L 14.746094 6 z M 16 14 L 16 16 L 14 16 L 14 17 L 16 17 L 16 19 L 17 19 L 17 17 L 19 17 L 19 16 L 17 16 L 17 14 L 16 14 z "
    class="ColorScheme-Text"
    />  
</svg>
